images/indikatorenset/4154.svg

<?xml version="1.0" standalone="no"?><!DOCTYPE svg PUBLIC "-//W3C//DTD SVG 1.1//EN" "http://www.w3.org/Graphics/SVG/1.1/DTD/svg11.dtd"><svg xmlns:xlink="http://www.w3.org/1999/xlink" version="1.1" class="highcharts-root" style="font-family:Arial;font-size:12px;" xmlns="http://www.w3.org/2000/svg" viewBox="0 0 485 415"><desc>Created with Highstock 5.0.7</desc><defs><clipPath id="highcharts-uikd0mk-1"><rect x="0" y="0" width="389" height="250" fill="none"></rect></clipPath><clipPath id="highcharts-uikd0mk-2"><rect x="0" y="0" width="389" height="250" fill="none"></rect></clipPath><clipPath id="highcharts-uikd0mk-3"><rect x="0" y="0" width="389" height="250" fill="none"></rect></clipPath></defs><rect fill="#fbfbfb" class="highcharts-background" x="0" y="0" width="485" height="415" rx="0" ry="0"></rect><rect fill="none" class="highcharts-plot-background" x="43" y="100" width="389" height="250"></rect><g class="highcharts-grid highcharts-xaxis-grid "><path fill="none" class="highcharts-grid-line" d="M 83.5 100 L 83.5 350 M 83.5 100 L 83.5 350" opacity="1"></path><path fill="none" class="highcharts-grid-line" d="M 160.5 100 L 160.5 350 M 160.5 100 L 160.5 350" opacity="1"></path><path fill="none" class="highcharts-grid-line" d="M 237.5 100 L 237.5 350 M 237.5 100 L 237.5 350" opacity="1"></path><path fill="none" class="highcharts-grid-line" d="M 313.5 100 L 313.5 350 M 313.5 100 L 313.5 350" opacity="1"></path><path fill="none" class="highcharts-grid-line" d="M 390.5 100 L 390.5 350 M 390.5 100 L 390.5 350" opacity="1"></path></g><g class="highcharts-grid highcharts-yaxis-grid "><path fill="none" stroke="#e6e6e6" stroke-width="1" class="highcharts-grid-line" d="M 43 350.5 L 432 350.5" opacity="1"></path><path fill="none" stroke="#e6e6e6" stroke-width="1" class="highcharts-grid-line" d="M 43 288.5 L 432 288.5" opacity="1"></path><path fill="none" stroke="#e6e6e6" stroke-width="1" class="highcharts-grid-line" d="M 43 225.5 L 432 225.5" opacity="1"></path><path fill="none" stroke="#e6e6e6" stroke-width="1" class="highcharts-grid-line" d="M 43 163.5 L 432 163.5" opacity="1"></path><path fill="none" stroke="#e6e6e6" stroke-width="1" class="highcharts-grid-line" d="M 43 99.5 L 432 99.5" opacity="1"></path></g><g class="highcharts-grid highcharts-yaxis-grid "><path fill="none" stroke="#e6e6e6" stroke-width="1" class="highcharts-grid-line" d="M 43 350.5 L 432 350.5" opacity="1"></path><path fill="none" stroke="#e6e6e6" stroke-width="1" class="highcharts-grid-line" d="M 43 288.5 L 432 288.5" opacity="1"></path><path fill="none" stroke="#e6e6e6" stroke-width="1" class="highcharts-grid-line" d="M 43 225.5 L 432 225.5" opacity="1"></path><path fill="none" stroke="#e6e6e6" stroke-width="1" class="highcharts-grid-line" d="M 43 163.5 L 432 163.5" opacity="1"></path><path fill="none" stroke="#e6e6e6" stroke-width="1" class="highcharts-grid-line" d="M 43 99.5 L 432 99.5" opacity="1"></path></g><rect fill="none" class="highcharts-plot-border" x="43" y="100" width="389" height="250"></rect><g class="highcharts-axis highcharts-xaxis "><path fill="none" class="highcharts-tick" stroke="#FFFFFF" stroke-width="1" d="M 83.5 350 L 83.5 360" opacity="1"></path><path fill="none" class="highcharts-tick" stroke="#FFFFFF" stroke-width="1" d="M 160.5 350 L 160.5 360" opacity="1"></path><path fill="none" class="highcharts-tick" stroke="#FFFFFF" stroke-width="1" d="M 237.5 350 L 237.5 360" opacity="1"></path><path fill="none" class="highcharts-tick" stroke="#FFFFFF" stroke-width="1" d="M 313.5 350 L 313.5 360" opacity="1"></path><path fill="none" class="highcharts-tick" stroke="#FFFFFF" stroke-width="1" d="M 390.5 350 L 390.5 360" opacity="1"></path><path fill="none" class="highcharts-axis-line" stroke="#ccd6eb" stroke-width="1" d="M 43 350.5 L 432 350.5"></path></g><g class="highcharts-axis highcharts-yaxis "><path fill="none" class="highcharts-axis-line" d="M 43 100 L 43 350"></path></g><g class="highcharts-axis highcharts-yaxis "><path fill="none" class="highcharts-axis-line" d="M 432 100 L 432 350"></path></g><g class="highcharts-series-group"><g class="highcharts-series highcharts-series-0 highcharts-column-series highcharts-color-undefined highcharts-tracker" transform="translate(43,100) scale(1 1)" clip-path="url(#highcharts-uikd0mk-2)"><rect x="20.5" y="85.5" width="19" height="165" fill="#73b97c" class="highcharts-point" stroke="#ffffff" stroke-width="1"></rect><rect x="96.5" y="85.5" width="19" height="165" fill="#73b97c" class="highcharts-point" stroke="#ffffff" stroke-width="1"></rect><rect x="173.5" y="85.5" width="19" height="165" fill="#73b97c" class="highcharts-point" stroke="#ffffff" stroke-width="1"></rect><rect x="249.5" y="45.5" width="19" height="205" fill="#73b97c" class="highcharts-point" stroke="#ffffff" stroke-width="1"></rect><rect x="326.5" y="23.5" width="19" height="227" fill="#73b97c" class="highcharts-point" stroke="#ffffff" stroke-width="1"></rect></g><g class="highcharts-markers highcharts-series-0 highcharts-column-series highcharts-color-undefined " transform="translate(43,100) scale(1 1)" clip-path="none"></g><g class="highcharts-series highcharts-series-1 highcharts-column-series highcharts-color-undefined highcharts-tracker" transform="translate(43,100) scale(1 1)" clip-path="url(#highcharts-uikd0mk-2)"><rect x="43.5" y="100.5" width="19" height="150" fill="#007A2F" class="highcharts-point" stroke="#ffffff" stroke-width="1"></rect><rect x="119.5" y="101.5" width="19" height="149" fill="#007A2F" class="highcharts-point" stroke="#ffffff" stroke-width="1"></rect><rect x="196.5" y="94.5" width="19" height="156" fill="#007A2F" class="highcharts-point" stroke="#ffffff" stroke-width="1"></rect></g><g class="highcharts-markers highcharts-series-1 highcharts-column-series highcharts-color-undefined " transform="translate(43,100) scale(1 1)" clip-path="none"></g><g class="highcharts-series highcharts-series-2 highcharts-line-series highcharts-color-undefined " transform="translate(43,100) scale(1 1)" clip-path="url(#highcharts-uikd0mk-3)"><path fill="none" d="M 41.350393700785 22.75 L 117.92519685039 24.5 L 194.5 13.25" class="highcharts-graph" stroke="#cd9c00" stroke-width="2" stroke-linejoin="round" stroke-linecap="round"></path><path fill="none" d="M 31.350393700785 22.75 L 41.350393700785 22.75 L 117.92519685039 24.5 L 194.5 13.25 L 204.5 13.25" stroke-linejoin="round" visibility="visible" stroke="rgba(192,192,192,0.0001)" stroke-width="22" class="highcharts-tracker"></path></g><g class="highcharts-markers highcharts-series-2 highcharts-line-series highcharts-color-undefined highcharts-tracker" transform="translate(43,100) scale(1 1)" clip-path="none"><path fill="#cd9c00" d="M 45 23 A 4 4 0 1 1 44.99999800000017 22.996000000666665 Z" class="highcharts-point"></path><path fill="#cd9c00" d="M 121 25 A 4 4 0 1 1 120.99999800000016 24.996000000666665 Z" class="highcharts-point"></path><path fill="#cd9c00" d="M 198 13 A 4 4 0 1 1 197.99999800000018 12.996000000666664 Z" class="highcharts-point"></path></g></g><text x="10" text-anchor="start" class="highcharts-title" style="color:#000000;font-size:14px;font-weight:bold;fill:#000000;" y="21"><tspan>Bestand an Notwohnungen und ihre Belegung</tspan></text><g class="highcharts-legend" transform="translate(10,45)"><rect fill="none" class="highcharts-legend-box" rx="0" ry="0" x="0" y="0" width="395" height="39" visibility="visible"></rect><g><g><g class="highcharts-legend-item highcharts-column-series highcharts-color-undefined highcharts-series-0" transform="translate(8,3)"><text x="21" style="color:#333333;font-size:12px;font-weight:normal;cursor:pointer;fill:#333333;" text-anchor="start" y="15"><tspan>Anzahl Notwohnungen</tspan></text><rect x="2" y="4" width="12" height="12" fill="#73b97c" class="highcharts-point"></rect></g><g class="highcharts-legend-item highcharts-column-series highcharts-color-undefined highcharts-series-1" transform="translate(169.6875,3)"><text x="21" y="15" style="color:#333333;font-size:12px;font-weight:normal;cursor:pointer;fill:#333333;" text-anchor="start"><tspan>belegte Notwohnungen</tspan></text><rect x="2" y="4" width="12" height="12" fill="#007A2F" class="highcharts-point"></rect></g><g class="highcharts-legend-item highcharts-line-series highcharts-color-undefined highcharts-series-2" transform="translate(8,17)"><path fill="none" d="M 0 11 L 16 11" class="highcharts-graph" stroke="#cd9c00" stroke-width="2"></path><path fill="#cd9c00" d="M 12 11 A 4 4 0 1 1 11.999998000000167 10.996000000666664 Z" class="highcharts-point"></path><text x="21" y="15" style="color:#333333;font-size:12px;font-weight:normal;cursor:pointer;fill:#333333;" text-anchor="start"><tspan>Belegungsquote (Anteil belegter Notwohnungen in %, rechte Skala)</tspan></text></g></g></g></g><g class="highcharts-axis-labels highcharts-xaxis-labels "><text x="84.3503937007852" style="color:#000000;cursor:default;font-size:11px;fill:#000000;" text-anchor="middle" transform="translate(0,0)" y="369" opacity="1"><tspan>2011</tspan></text><text x="160.92519685039258" style="color:#000000;cursor:default;font-size:11px;fill:#000000;" text-anchor="middle" transform="translate(0,0)" y="369" opacity="1"><tspan>2012</tspan></text><text x="237.5" style="color:#000000;cursor:default;font-size:11px;fill:#000000;" text-anchor="middle" transform="translate(0,0)" y="369" opacity="1"><tspan>2013</tspan></text><text x="314.07480314960736" style="color:#000000;cursor:default;font-size:11px;fill:#000000;" text-anchor="middle" transform="translate(0,0)" y="369" opacity="1"><tspan>2014</tspan></text><text x="390.6496062992148" style="color:#000000;cursor:default;font-size:11px;fill:#000000;" text-anchor="middle" transform="translate(0,0)" y="369" opacity="1"><tspan>2015</tspan></text></g><g class="highcharts-axis-labels highcharts-yaxis-labels "><text x="28" style="color:#000000;cursor:default;font-size:11px;fill:#000000;" text-anchor="end" transform="translate(0,0)" y="355" opacity="1"><tspan>0</tspan></text><text x="28" style="color:#000000;cursor:default;font-size:11px;fill:#000000;" text-anchor="end" transform="translate(0,0)" y="292" opacity="1"><tspan>50</tspan></text><text x="28" style="color:#000000;cursor:default;font-size:11px;fill:#000000;" text-anchor="end" transform="translate(0,0)" y="230" opacity="1"><tspan>100</tspan></text><text x="28" style="color:#000000;cursor:default;font-size:11px;fill:#000000;" text-anchor="end" transform="translate(0,0)" y="167" opacity="1"><tspan>150</tspan></text><text x="28" style="color:#000000;cursor:default;font-size:11px;fill:#000000;" text-anchor="end" transform="translate(0,0)" y="105" opacity="1"><tspan>200</tspan></text></g><g class="highcharts-axis-labels highcharts-yaxis-labels "><text x="447" style="color:#000000;cursor:default;font-size:11px;fill:#000000;" text-anchor="start" transform="translate(0,0)" y="355" opacity="1"><tspan>0%</tspan></text><text x="447" style="color:#000000;cursor:default;font-size:11px;fill:#000000;" text-anchor="start" transform="translate(0,0)" y="292" opacity="1"><tspan>25%</tspan></text><text x="447" style="color:#000000;cursor:default;font-size:11px;fill:#000000;" text-anchor="start" transform="translate(0,0)" y="230" opacity="1"><tspan>50%</tspan></text><text x="447" style="color:#000000;cursor:default;font-size:11px;fill:#000000;" text-anchor="start" transform="translate(0,0)" y="167" opacity="1"><tspan>75%</tspan></text><text x="447" style="color:#000000;cursor:default;font-size:11px;fill:#000000;" text-anchor="start" transform="translate(0,0)" y="105" opacity="1"><tspan>100%</tspan></text></g><text x="10" class="highcharts-credits" text-anchor="start" style="cursor:default;color:#000000;font-size:10px;fill:#000000;" y="400"><tspan>Quelle: Statistisches Amt Basel-Stadt, Sozialhilfe Basel</tspan></text></svg>

<svg class="highcharts-root" xmlns="http://www.w3.org/2000/svg" viewBox="0 0 485 415" font-family="Arial" font-size="12">
    <defs>
        <clipPath id="a">
            <path fill="none" d="M0 0h389v250H0z"/>
        </clipPath>
        <clipPath id="b">
            <path fill="none" d="M0 0h389v250H0z"/>
        </clipPath>
    </defs>
    <rect fill="#fbfbfb" class="highcharts-background" width="485" height="415" rx="0" ry="0"/>
    <path fill="none" class="highcharts-plot-background" d="M43 100h389v250H43z"/>
    <g class="highcharts-grid highcharts-xaxis-grid">
        <path fill="none" class="highcharts-grid-line" d="M83.5 100v250m0-250v250m77-250v250m0-250v250m77-250v250m0-250v250m76-250v250m0-250v250m77-250v250m0-250v250"/>
    </g>
    <g class="highcharts-grid highcharts-yaxis-grid">
        <path fill="none" stroke="#e6e6e6" class="highcharts-grid-line" d="M43 350.5h389m-389-62h389m-389-63h389m-389-62h389m-389-64h389"/>
    </g>
    <g class="highcharts-grid highcharts-yaxis-grid">
        <path fill="none" stroke="#e6e6e6" class="highcharts-grid-line" d="M43 350.5h389m-389-62h389m-389-63h389m-389-62h389m-389-64h389"/>
    </g>
    <path fill="none" class="highcharts-plot-border" d="M43 100h389v250H43z"/>
    <g class="highcharts-axis highcharts-xaxis">
        <path fill="none" class="highcharts-tick" stroke="#FFF" d="M83.5 350v10m77-10v10m77-10v10m76-10v10m77-10v10"/>
        <path fill="none" class="highcharts-axis-line" stroke="#ccd6eb" d="M43 350.5h389"/>
    </g>
    <g class="highcharts-axis highcharts-yaxis">
        <path fill="none" class="highcharts-axis-line" d="M43 100v250"/>
    </g>
    <g class="highcharts-axis highcharts-yaxis">
        <path fill="none" class="highcharts-axis-line" d="M432 100v250"/>
    </g>
    <g class="highcharts-series-group">
        <g class="highcharts-series highcharts-series-0 highcharts-column-series highcharts-color-undefined highcharts-tracker" transform="translate(43 100)" clip-path="url(#a)">
            <path fill="#73b97c" class="highcharts-point" stroke="#fff" d="M20.5 85.5h19v165h-19zm76 0h19v165h-19zm77 0h19v165h-19zm76-40h19v205h-19zm77-22h19v227h-19z"/>
        </g>
        <g class="highcharts-series highcharts-series-1 highcharts-column-series highcharts-color-undefined highcharts-tracker" transform="translate(43 100)" clip-path="url(#a)">
            <path fill="#007A2F" class="highcharts-point" stroke="#fff" d="M43.5 100.5h19v150h-19zm76 1h19v149h-19zm77-7h19v156h-19z"/>
        </g>
        <g class="highcharts-series highcharts-series-2 highcharts-line-series highcharts-color-undefined" transform="translate(43 100)" clip-path="url(#b)">
            <path fill="none" d="M41.35 22.75l76.575 1.75L194.5 13.25" class="highcharts-graph" stroke="#cd9c00" stroke-width="2" stroke-linejoin="round" stroke-linecap="round"/>
            <path fill="none" d="M31.35 22.75h10l76.575 1.75L194.5 13.25h10" stroke-linejoin="round" stroke="rgba(192,192,192,0.0001)" stroke-width="22" class="highcharts-tracker"/>
        </g>
        <g class="highcharts-markers highcharts-series-2 highcharts-line-series highcharts-color-undefined highcharts-tracker">
            <path fill="#cd9c00" d="M88 123a4 4 0 1 1 0-.004zm76 2a4 4 0 1 1 0-.004zm77-12a4 4 0 1 1 0-.004z" class="highcharts-point"/>
        </g>
    </g>
    <text x="10" class="highcharts-title" y="21" color="#000" font-size="14" font-weight="700">
        <tspan>Bestand an Notwohnungen und ihre Belegung</tspan>
    </text>
    <g class="highcharts-legend" transform="translate(10 45)">
        <rect fill="none" class="highcharts-legend-box" rx="0" ry="0" width="395" height="39"/>
        <g class="highcharts-legend-item highcharts-column-series highcharts-color-undefined highcharts-series-0">
            <text x="21" y="15" color="#333" font-weight="400" cursor="pointer" fill="#333" transform="translate(8 3)">
                <tspan>Anzahl Notwohnungen</tspan>
            </text>
            <path fill="#73b97c" class="highcharts-point" d="M10 7h12v12H10z"/>
        </g>
        <g class="highcharts-legend-item highcharts-column-series highcharts-color-undefined highcharts-series-1">
            <text x="21" y="15" color="#333" font-weight="400" cursor="pointer" fill="#333" transform="translate(169.688 3)">
                <tspan>belegte Notwohnungen</tspan>
            </text>
            <path fill="#007A2F" class="highcharts-point" d="M171.688 7h12v12h-12z"/>
        </g>
        <g class="highcharts-legend-item highcharts-line-series highcharts-color-undefined highcharts-series-2">
            <path fill="none" d="M8 28h16" class="highcharts-graph" stroke="#cd9c00" stroke-width="2"/>
            <path fill="#cd9c00" d="M20 28a4 4 0 1 1 0-.004z" class="highcharts-point"/>
            <text x="21" y="15" color="#333" font-weight="400" cursor="pointer" fill="#333" transform="translate(8 17)">
                <tspan>Belegungsquote (Anteil belegter Notwohnungen in %, rechte Skala)</tspan>
            </text>
        </g>
    </g>
    <g class="highcharts-axis-labels highcharts-xaxis-labels" text-anchor="middle" color="#000" cursor="default" font-size="11">
        <text x="84.35" y="369">
            <tspan>2011</tspan>
        </text>
        <text x="160.925" y="369">
            <tspan>2012</tspan>
        </text>
        <text x="237.5" y="369">
            <tspan>2013</tspan>
        </text>
        <text x="314.075" y="369">
            <tspan>2014</tspan>
        </text>
        <text x="390.65" y="369">
            <tspan>2015</tspan>
        </text>
    </g>
    <g class="highcharts-axis-labels highcharts-yaxis-labels" text-anchor="end" color="#000" cursor="default" font-size="11">
        <text x="28" y="355">
            <tspan>0</tspan>
        </text>
        <text x="28" y="292">
            <tspan>50</tspan>
        </text>
        <text x="28" y="230">
            <tspan>100</tspan>
        </text>
        <text x="28" y="167">
            <tspan>150</tspan>
        </text>
        <text x="28" y="105">
            <tspan>200</tspan>
        </text>
    </g>
    <g class="highcharts-axis-labels highcharts-yaxis-labels" color="#000" cursor="default" font-size="11">
        <text x="447" y="355">
            <tspan>0%</tspan>
        </text>
        <text x="447" y="292">
            <tspan>25%</tspan>
        </text>
        <text x="447" y="230">
            <tspan>50%</tspan>
        </text>
        <text x="447" y="167">
            <tspan>75%</tspan>
        </text>
        <text x="447" y="105">
            <tspan>100%</tspan>
        </text>
    </g>
    <text x="10" class="highcharts-credits" y="400" cursor="default" color="#000" font-size="10">
        <tspan>Quelle: Statistisches Amt Basel-Stadt, Sozialhilfe Basel</tspan>
    </text>
</svg>
